SF_Symbols/tag.fill.svg

<?xml version="1.0" encoding="UTF-8"?>
<svg xmlns="http://www.w3.org/2000/svg" xmlns:xlink="http://www.w3.org/1999/xlink" width="24" height="24" viewBox="0 0 24 24" version="1.1">
<g id="surface1">
<path style=" stroke:none;fill-rule:nonzero;fill:rgb(100%,100%,100%);fill-opacity:1;" d="M 12.644531 22.1875 L 22.800781 12.011719 C 23.066406 11.746094 23.253906 11.511719 23.363281 11.300781 C 23.484375 11.085938 23.554688 10.859375 23.582031 10.613281 C 23.617188 10.363281 23.636719 10.054688 23.636719 9.6875 L 23.636719 5.730469 C 23.636719 5.359375 23.601562 5.0625 23.53125 4.832031 C 23.46875 4.597656 23.359375 4.382812 23.207031 4.1875 C 23.054688 3.984375 22.847656 3.753906 22.582031 3.488281 L 20.1875 1.09375 C 19.921875 0.835938 19.695312 0.632812 19.5 0.480469 C 19.304688 0.320312 19.089844 0.207031 18.855469 0.144531 C 18.625 0.078125 18.328125 0.0429688 17.957031 0.0429688 L 13.988281 0.0429688 C 13.628906 0.0429688 13.324219 0.0585938 13.074219 0.09375 C 12.824219 0.121094 12.589844 0.195312 12.375 0.3125 C 12.167969 0.429688 11.933594 0.617188 11.675781 0.875 L 1.488281 11.042969 C 0.746094 11.785156 0.371094 12.539062 0.363281 13.300781 C 0.359375 14.066406 0.734375 14.828125 1.5 15.59375 L 8.09375 22.175781 C 8.859375 22.933594 9.621094 23.308594 10.386719 23.300781 C 11.148438 23.300781 11.902344 22.929688 12.644531 22.1875 Z M 16.207031 8.375 C 15.796875 8.375 15.457031 8.234375 15.1875 7.957031 C 14.917969 7.679688 14.78125 7.34375 14.78125 6.949219 C 14.78125 6.546875 14.917969 6.207031 15.1875 5.9375 C 15.457031 5.660156 15.796875 5.519531 16.207031 5.519531 C 16.609375 5.519531 16.949219 5.660156 17.21875 5.9375 C 17.496094 6.207031 17.636719 6.546875 17.636719 6.949219 C 17.636719 7.34375 17.496094 7.679688 17.21875 7.957031 C 16.949219 8.234375 16.609375 8.375 16.207031 8.375 Z M 16.207031 8.375 "/>
</g>
</svg>

<svg xmlns="http://www.w3.org/2000/svg" width="24" height="24"><path style="stroke:none;fill-rule:nonzero;fill:#fff;fill-opacity:1" d="M12.645 22.188 22.8 12.011c.265-.266.453-.5.562-.711.121-.215.192-.442.219-.688.035-.25.055-.558.055-.925V5.73c0-.37-.035-.668-.106-.898a1.891 1.891 0 0 0-.324-.644 7.068 7.068 0 0 0-.625-.7l-2.395-2.394A9.284 9.284 0 0 0 19.5.48a1.7 1.7 0 0 0-.645-.335 3.323 3.323 0 0 0-.898-.102h-3.969c-.36 0-.664.016-.914.05-.25.028-.484.102-.699.22a3.349 3.349 0 0 0-.7.562L1.489 11.043c-.742.742-1.117 1.496-1.125 2.258-.004.765.371 1.527 1.137 2.293l6.594 6.582c.765.758 1.527 1.133 2.293 1.125.761 0 1.515-.371 2.258-1.113Zm3.562-13.813c-.41 0-.75-.14-1.02-.418a1.392 1.392 0 0 1-.406-1.008c0-.402.137-.742.406-1.011.27-.278.61-.418 1.02-.418.402 0 .742.14 1.012.418.277.269.418.609.418 1.011 0 .395-.14.73-.418 1.008-.27.277-.61.418-1.012.418Zm0 0"/></svg>
